polaris-icons/icons/PasskeyIcon.svg

<svg xmlns="http://www.w3.org/2000/svg" viewBox="0 0 20 20"><path fill-rule="evenodd" d="M5.5 6.5C5.5 4.567 7.067 3 9 3C10.933 3 12.5 4.567 12.5 6.5C12.5 8.433 10.933 10 9 10C7.067 10 5.5 8.433 5.5 6.5ZM9 4.5C7.89543 4.5 7 5.39543 7 6.5C7 7.60457 7.89543 8.5 9 8.5C10.1046 8.5 11 7.60457 11 6.5C11 5.39543 10.1046 4.5 9 4.5Z"/>
<path d="M8.99999 12.5C7.26644 12.5 5.66915 13.4398 4.82727 14.9552L4.52463 15.5H10.25C10.6642 15.5 11 15.8358 11 16.25C11 16.6642 10.6642 17 10.25 17H4.24867C3.22875 17 2.58406 15.9043 3.07937 15.0128L3.51603 14.2268C4.62247 12.2352 6.72169 11 8.99999 11C9.4142 11 9.74999 11.3358 9.74999 11.75C9.74999 12.1642 9.4142 12.5 8.99999 12.5Z"/>
<path d="M15.5 11.375C15.5 11.8582 15.1082 12.25 14.625 12.25C14.1418 12.25 13.75 11.8582 13.75 11.375C13.75 10.8918 14.1418 10.5 14.625 10.5C15.1082 10.5 15.5 10.8918 15.5 11.375Z"/>
<path fill-rule="evenodd" d="M11.25 11.376C11.25 9.51147 12.7615 8 14.626 8C16.4904 8 18.0019 9.51147 18.0019 11.376V12.1015C18.0019 12.833 17.6367 13.4792 17.0786 13.8676C17.129 14.2212 17.077 14.5815 16.9339 14.9044C17.2292 15.6555 17.0511 16.5547 16.3917 17.1304L15.9949 17.4768C15.0803 18.2752 13.6711 18.0813 13.0062 17.0655L12.6801 16.5672C12.467 16.2417 12.3535 15.861 12.3535 15.4719V13.9803C11.6952 13.6127 11.25 12.9091 11.25 12.1015V11.376ZM13.6592 12.833C13.5858 12.7819 13.4966 12.7519 13.4004 12.7519C13.0412 12.7519 12.75 12.4607 12.75 12.1015V11.376C12.75 10.3399 13.5899 9.5 14.626 9.5C15.662 9.5 16.5019 10.3399 16.5019 11.376V12.1015C16.5019 12.4607 16.2107 12.7519 15.8515 12.7519H15.6054C15.4989 12.7519 15.4004 12.786 15.3202 12.8439C15.2062 12.9262 15.1292 13.0564 15.1187 13.205L15.1179 13.2202C15.1178 13.2235 15.1177 13.2268 15.1176 13.2301C15.1175 13.2333 15.1175 13.2366 15.1175 13.2398C15.1175 13.3525 15.1565 13.4616 15.2278 13.5488L15.5098 13.8935C15.6738 14.0939 15.597 14.3957 15.3572 14.4934L15.3535 14.495C15.1612 14.5755 15.0802 14.7828 15.1336 14.9613C15.1545 15.0311 15.196 15.0964 15.2593 15.148L15.3925 15.2566C15.4056 15.2672 15.4179 15.2784 15.4296 15.29C15.6263 15.4862 15.6197 15.8132 15.4052 16.0005L15.0084 16.3468C14.8473 16.4875 14.6249 16.5049 14.4493 16.4142C14.4385 16.4086 14.4279 16.4026 14.4175 16.3962L14.4134 16.3936C14.3795 16.3723 14.3478 16.3467 14.3192 16.3169L14.3126 16.3099C14.294 16.2898 14.2768 16.2678 14.2613 16.244L13.9352 15.7458C13.8819 15.6644 13.8535 15.5692 13.8535 15.4719V13.205C13.8535 13.051 13.7766 12.9149 13.6592 12.833Z"/>
</svg>

<svg xmlns="http://www.w3.org/2000/svg" viewBox="0 0 20 20"><path fill-rule="evenodd" d="M5.5 6.5c0-1.933 1.567-3.5 3.5-3.5s3.5 1.567 3.5 3.5-1.567 3.5-3.5 3.5-3.5-1.567-3.5-3.5Zm3.5-2c-1.105 0-2 .895-2 2s.895 2 2 2 2-.895 2-2-.895-2-2-2Z"/><path d="M9 12.5c-1.734 0-3.33.94-4.173 2.455l-.302.545h5.725c.414 0 .75.336.75.75s-.336.75-.75.75h-6.001c-1.02 0-1.665-1.096-1.17-1.987l.437-.786c1.106-1.992 3.206-3.227 5.484-3.227.414 0 .75.336.75.75s-.336.75-.75.75Z"/><path d="M15.5 11.375c0 .483-.392.875-.875.875s-.875-.392-.875-.875.392-.875.875-.875.875.392.875.875Z"/><path fill-rule="evenodd" d="M11.25 11.376c0-1.865 1.511-3.376 3.376-3.376 1.864 0 3.376 1.511 3.376 3.376v.726c0 .731-.365 1.377-.923 1.766.05.353-.002.713-.145 1.036.295.752.117 1.65-.542 2.226l-.397.347c-.915.798-2.324.604-2.989-.412l-.326-.498c-.213-.325-.326-.706-.326-1.095v-1.492c-.659-.367-1.104-1.07-1.104-1.879v-.725Zm2.41 1.457c-.074-.051-.163-.081-.26-.081-.359 0-.65-.291-.65-.65v-.726c0-1.036.84-1.876 1.876-1.876s1.876.84 1.876 1.876v.726c0 .359-.291.65-.65.65h-.247c-.106 0-.205.034-.285.092-.114.082-.19.212-.201.361l-.001.015v.02c0 .112.038.222.11.309l.282.345c.164.2.087.502-.153.6l-.003.001c-.193.08-.274.288-.22.466.02.07.062.135.125.187l.133.109c.014.01.026.021.038.033.196.196.19.523-.025.71l-.397.347c-.16.14-.383.158-.559.067-.01-.005-.021-.011-.031-.018l-.005-.002c-.034-.022-.065-.047-.094-.077l-.006-.007c-.019-.02-.036-.042-.052-.066l-.326-.498c-.053-.082-.082-.177-.082-.274v-2.267c0-.154-.076-.29-.194-.372Z"/></svg>
